;Generated with Makelangelo 7.78.3
; 2026-02-13 at 00:50:34 CET
;FLAVOR:Marlin-polargraph
;MINX:-90.000
;MINY:-82.333
;MAXX:70.000
;MAXY:82.333
;Start of user gcode

;End of user gcode
G28 X Y
M201 X100.0 Y100.0
M203 X3000.0 Y3000.0
M204 S100.0
M205 X10 Y10
M280 P0 S90.0 T150.0
M0 Ready black and click
G0 X70.000 Y0.000 F3000.0
M280 P0 S25.0 T250.0
G1 X70.000 Y0.000 F3000.0
G1 X70.000 Y0.188 F3000.0
G1 X69.999 Y0.377 F3000.0
G1 X69.998 Y0.565 F3000.0
G1 X69.997 Y0.754 F3000.0
G1 X69.995 Y0.942 F3000.0
G1 X69.993 Y1.131 F3000.0
G1 X69.990 Y1.319 F3000.0
G1 X69.987 Y1.508 F3000.0
G1 X69.984 Y1.696 F3000.0
G1 X69.980 Y1.885 F3000.0
G1 X69.976 Y2.073 F3000.0
G1 X69.972 Y2.262 F3000.0
G1 X69.967 Y2.450 F3000.0
G1 X69.961 Y2.639 F3000.0
G1 X69.956 Y2.827 F3000.0
G1 X69.949 Y3.016 F3000.0
G1 X69.943 Y3.204 F3000.0
G1 X69.936 Y3.393 F3000.0
G1 X69.929 Y3.581 F3000.0
G1 X69.921 Y3.770 F3000.0
G1 X69.913 Y3.958 F3000.0
G1 X69.904 Y4.147 F3000.0
G1 X69.895 Y4.335 F3000.0
G1 X69.886 Y4.524 F3000.0
G1 X69.877 Y4.712 F3000.0
G1 X69.866 Y4.901 F3000.0
G1 X69.856 Y5.089 F3000.0
G1 X69.845 Y5.278 F3000.0
G1 X69.834 Y5.466 F3000.0
G1 X69.822 Y5.655 F3000.0
G1 X69.810 Y5.843 F3000.0
G1 X69.798 Y6.032 F3000.0
G1 X69.785 Y6.220 F3000.0
G1 X69.771 Y6.409 F3000.0
G1 X69.758 Y6.597 F3000.0
G1 X69.744 Y6.786 F3000.0
G1 X69.729 Y6.974 F3000.0
G1 X69.714 Y7.163 F3000.0
G1 X69.699 Y7.351 F3000.0
G1 X69.683 Y7.540 F3000.0
G1 X69.667 Y7.728 F3000.0
G1 X69.651 Y7.917 F3000.0
G1 X69.634 Y8.105 F3000.0
G1 X69.617 Y8.294 F3000.0
G1 X69.599 Y8.482 F3000.0
G1 X69.581 Y8.671 F3000.0
G1 X69.562 Y8.859 F3000.0
G1 X69.543 Y9.048 F3000.0
G1 X69.524 Y9.236 F3000.0
G1 X69.505 Y9.425 F3000.0
G1 X69.484 Y9.613 F3000.0
G1 X69.464 Y9.802 F3000.0
G1 X69.443 Y9.990 F3000.0
G1 X69.422 Y10.178 F3000.0
G1 X69.400 Y10.367 F3000.0
G1 X69.378 Y10.555 F3000.0
G1 X69.355 Y10.744 F3000.0
G1 X69.332 Y10.932 F3000.0
G1 X69.309 Y11.121 F3000.0
G1 X69.285 Y11.309 F3000.0
G1 X69.261 Y11.498 F3000.0
G1 X69.236 Y11.686 F3000.0
G1 X69.211 Y11.875 F3000.0
G1 X69.186 Y12.063 F3000.0
G1 X69.160 Y12.252 F3000.0
G1 X69.134 Y12.440 F3000.0
G1 X69.107 Y12.628 F3000.0
G1 X69.080 Y12.817 F3000.0
G1 X69.053 Y13.005 F3000.0
G1 X69.025 Y13.194 F3000.0
G1 X68.997 Y13.382 F3000.0
G1 X68.968 Y13.571 F3000.0
G1 X68.939 Y13.759 F3000.0
G1 X68.909 Y13.947 F3000.0
G1 X68.880 Y14.136 F3000.0
G1 X68.849 Y14.324 F3000.0
G1 X68.818 Y14.513 F3000.0
G1 X68.787 Y14.701 F3000.0
G1 X68.756 Y14.889 F3000.0
G1 X68.724 Y15.078 F3000.0
G1 X68.691 Y15.266 F3000.0
G1 X68.658 Y15.454 F3000.0
G1 X68.625 Y15.643 F3000.0
G1 X68.591 Y15.831 F3000.0
G1 X68.557 Y16.019 F3000.0
G1 X68.523 Y16.208 F3000.0
G1 X68.488 Y16.396 F3000.0
G1 X68.452 Y16.584 F3000.0
G1 X68.416 Y16.773 F3000.0
G1 X68.380 Y16.961 F3000.0
G1 X68.344 Y17.149 F3000.0
G1 X68.306 Y17.338 F3000.0
G1 X68.269 Y17.526 F3000.0
G1 X68.231 Y17.714 F3000.0
G1 X68.193 Y17.902 F3000.0
G1 X68.154 Y18.091 F3000.0
G1 X68.115 Y18.279 F3000.0
G1 X68.075 Y18.467 F3000.0
G1 X68.035 Y18.655 F3000.0
G1 X67.994 Y18.844 F3000.0
G1 X67.953 Y19.032 F3000.0
G1 X67.912 Y19.220 F3000.0
G1 X67.870 Y19.408 F3000.0
G1 X67.828 Y19.596 F3000.0
G1 X67.785 Y19.784 F3000.0
G1 X67.742 Y19.972 F3000.0
G1 X67.699 Y20.161 F3000.0
G1 X67.655 Y20.349 F3000.0
G1 X67.610 Y20.537 F3000.0
G1 X67.565 Y20.725 F3000.0
G1 X67.520 Y20.913 F3000.0
G1 X67.474 Y21.101 F3000.0
G1 X67.428 Y21.289 F3000.0
G1 X67.381 Y21.477 F3000.0
G1 X67.334 Y21.665 F3000.0
G1 X67.287 Y21.853 F3000.0
G1 X67.239 Y22.041 F3000.0
G1 X67.191 Y22.229 F3000.0
G1 X67.142 Y22.417 F3000.0
G1 X67.092 Y22.604 F3000.0
G1 X67.043 Y22.792 F3000.0
G1 X66.993 Y22.980 F3000.0
G1 X66.942 Y23.168 F3000.0
G1 X66.891 Y23.356 F3000.0
G1 X66.839 Y23.544 F3000.0
G1 X66.787 Y23.731 F3000.0
G1 X66.735 Y23.919 F3000.0
G1 X66.682 Y24.107 F3000.0
G1 X66.629 Y24.294 F3000.0
G1 X66.575 Y24.482 F3000.0
G1 X66.521 Y24.670 F3000.0
G1 X66.466 Y24.857 F3000.0
G1 X66.411 Y25.045 F3000.0
G1 X66.355 Y25.233 F3000.0
G1 X66.299 Y25.420 F3000.0
G1 X66.243 Y25.608 F3000.0
G1 X66.186 Y25.795 F3000.0
G1 X66.128 Y25.982 F3000.0
G1 X66.070 Y26.170 F3000.0
G1 X66.012 Y26.357 F3000.0
G1 X65.953 Y26.545 F3000.0
G1 X65.894 Y26.732 F3000.0
G1 X65.834 Y26.919 F3000.0
G1 X65.774 Y27.106 F3000.0
G1 X65.713 Y27.294 F3000.0
G1 X65.652 Y27.481 F3000.0
G1 X65.590 Y27.668 F3000.0
G1 X65.528 Y27.855 F3000.0
G1 X65.466 Y28.042 F3000.0
G1 X65.403 Y28.229 F3000.0
G1 X65.339 Y28.416 F3000.0
G1 X65.275 Y28.603 F3000.0
G1 X65.211 Y28.790 F3000.0
G1 X65.146 Y28.977 F3000.0
G1 X65.080 Y29.164 F3000.0
G1 X65.015 Y29.350 F3000.0
G1 X64.948 Y29.537 F3000.0
G1 X64.881 Y29.724 F3000.0
G1 X64.814 Y29.910 F3000.0
G1 X64.746 Y30.097 F3000.0
G1 X64.678 Y30.284 F3000.0
G1 X64.609 Y30.470 F3000.0
G1 X64.540 Y30.657 F3000.0
G1 X64.470 Y30.843 F3000.0
G1 X64.400 Y31.029 F3000.0
G1 X64.329 Y31.216 F3000.0
G1 X64.258 Y31.402 F3000.0
G1 X64.187 Y31.588 F3000.0
G1 X64.114 Y31.774 F3000.0
G1 X64.042 Y31.960 F3000.0
G1 X63.969 Y32.146 F3000.0
G1 X63.895 Y32.332 F3000.0
G1 X63.821 Y32.518 F3000.0
G1 X63.746 Y32.704 F3000.0
G1 X63.671 Y32.890 F3000.0
G1 X63.596 Y33.076 F3000.0
G1 X63.520 Y33.261 F3000.0
G1 X63.443 Y33.447 F3000.0
G1 X63.366 Y33.632 F3000.0
G1 X63.288 Y33.818 F3000.0
G1 X63.210 Y34.003 F3000.0
G1 X63.132 Y34.189 F3000.0
G1 X63.053 Y34.374 F3000.0
G1 X62.973 Y34.559 F3000.0
G1 X62.893 Y34.744 F3000.0
G1 X62.813 Y34.929 F3000.0
G1 X62.731 Y35.114 F3000.0
G1 X62.650 Y35.299 F3000.0
G1 X62.568 Y35.484 F3000.0
G1 X62.485 Y35.669 F3000.0
G1 X62.402 Y35.854 F3000.0
G1 X62.318 Y36.038 F3000.0
G1 X62.234 Y36.223 F3000.0
G1 X62.150 Y36.407 F3000.0
G1 X62.065 Y36.592 F3000.0
G1 X61.979 Y36.776 F3000.0
G1 X61.893 Y36.960 F3000.0
G1 X61.806 Y37.144 F3000.0
G1 X61.719 Y37.328 F3000.0
G1 X61.631 Y37.512 F3000.0
G1 X61.543 Y37.696 F3000.0
G1 X61.454 Y37.880 F3000.0
G1 X61.365 Y38.064 F3000.0
G1 X61.275 Y38.247 F3000.0
G1 X61.185 Y38.431 F3000.0
G1 X61.094 Y38.614 F3000.0
G1 X61.003 Y38.797 F3000.0
G1 X60.911 Y38.981 F3000.0
G1 X60.818 Y39.164 F3000.0
G1 X60.726 Y39.347 F3000.0
G1 X60.632 Y39.530 F3000.0
G1 X60.538 Y39.712 F3000.0
G1 X60.444 Y39.895 F3000.0
G1 X60.349 Y40.078 F3000.0
G1 X60.253 Y40.260 F3000.0
G1 X60.157 Y40.443 F3000.0
G1 X60.060 Y40.625 F3000.0
G1 X59.963 Y40.807 F3000.0
G1 X59.865 Y40.989 F3000.0
G1 X59.767 Y41.171 F3000.0
G1 X59.668 Y41.353 F3000.0
G1 X59.569 Y41.535 F3000.0
G1 X59.469 Y41.716 F3000.0
G1 X59.369 Y41.898 F3000.0
G1 X59.268 Y42.079 F3000.0
G1 X59.167 Y42.260 F3000.0
G1 X59.065 Y42.441 F3000.0
G1 X58.962 Y42.622 F3000.0
G1 X58.859 Y42.803 F3000.0
G1 X58.756 Y42.984 F3000.0
G1 X58.651 Y43.164 F3000.0
G1 X58.547 Y43.345 F3000.0
G1 X58.441 Y43.525 F3000.0
G1 X58.336 Y43.705 F3000.0
G1 X58.229 Y43.885 F3000.0
G1 X58.123 Y44.065 F3000.0
G1 X58.015 Y44.245 F3000.0
G1 X57.907 Y44.425 F3000.0
G1 X57.799 Y44.604 F3000.0
G1 X57.690 Y44.784 F3000.0
G1 X57.580 Y44.963 F3000.0
G1 X57.470 Y45.142 F3000.0
G1 X57.359 Y45.321 F3000.0
G1 X57.248 Y45.499 F3000.0
G1 X57.136 Y45.678 F3000.0
G1 X57.024 Y45.856 F3000.0
G1 X56.911 Y46.035 F3000.0
G1 X56.797 Y46.213 F3000.0
G1 X56.683 Y46.391 F3000.0
G1 X56.569 Y46.569 F3000.0
G1 X56.453 Y46.746 F3000.0
G1 X56.338 Y46.924 F3000.0
G1 X56.221 Y47.101 F3000.0
G1 X56.105 Y47.278 F3000.0
G1 X55.987 Y47.455 F3000.0
G1 X55.869 Y47.632 F3000.0
G1 X55.751 Y47.808 F3000.0
G1 X55.632 Y47.985 F3000.0
G1 X55.512 Y48.161 F3000.0
G1 X55.392 Y48.337 F3000.0
G1 X55.271 Y48.513 F3000.0
G1 X55.150 Y48.689 F3000.0
G1 X55.028 Y48.864 F3000.0
G1 X54.905 Y49.040 F3000.0
G1 X54.782 Y49.215 F3000.0
G1 X54.658 Y49.390 F3000.0
G1 X54.534 Y49.565 F3000.0
G1 X54.410 Y49.739 F3000.0
G1 X54.284 Y49.914 F3000.0
G1 X54.158 Y50.088 F3000.0
G1 X54.032 Y50.262 F3000.0
G1 X53.905 Y50.435 F3000.0
G1 X53.777 Y50.609 F3000.0
G1 X53.649 Y50.782 F3000.0
G1 X53.520 Y50.956 F3000.0
G1 X53.391 Y51.129 F3000.0
G1 X53.261 Y51.301 F3000.0
G1 X53.130 Y51.474 F3000.0
G1 X52.999 Y51.646 F3000.0
G1 X52.868 Y51.818 F3000.0
G1 X52.736 Y51.990 F3000.0
G1 X52.603 Y52.162 F3000.0
G1 X52.469 Y52.333 F3000.0
G1 X52.335 Y52.504 F3000.0
G1 X52.201 Y52.675 F3000.0
G1 X52.066 Y52.846 F3000.0
G1 X51.930 Y53.016 F3000.0
G1 X51.794 Y53.187 F3000.0
G1 X51.657 Y53.357 F3000.0
G1 X51.519 Y53.527 F3000.0
G1 X51.381 Y53.696 F3000.0
G1 X51.243 Y53.865 F3000.0
G1 X51.104 Y54.034 F3000.0
G1 X50.964 Y54.203 F3000.0
G1 X50.824 Y54.372 F3000.0
G1 X50.683 Y54.540 F3000.0
G1 X50.541 Y54.708 F3000.0
G1 X50.399 Y54.876 F3000.0
G1 X50.256 Y55.044 F3000.0
G1 X50.113 Y55.211 F3000.0
G1 X49.969 Y55.378 F3000.0
G1 X49.825 Y55.545 F3000.0
G1 X49.680 Y55.711 F3000.0
G1 X49.534 Y55.877 F3000.0
G1 X49.388 Y56.043 F3000.0
G1 X49.241 Y56.209 F3000.0
G1 X49.094 Y56.374 F3000.0
G1 X48.946 Y56.539 F3000.0
G1 X48.797 Y56.704 F3000.0
G1 X48.648 Y56.869 F3000.0
G1 X48.498 Y57.033 F3000.0
G1 X48.348 Y57.197 F3000.0
G1 X48.197 Y57.361 F3000.0
G1 X48.045 Y57.524 F3000.0
G1 X47.893 Y57.687 F3000.0
G1 X47.741 Y57.850 F3000.0
G1 X47.587 Y58.012 F3000.0
G1 X47.433 Y58.175 F3000.0
G1 X47.279 Y58.336 F3000.0
G1 X47.124 Y58.498 F3000.0
G1 X46.968 Y58.659 F3000.0
G1 X46.812 Y58.820 F3000.0
G1 X46.655 Y58.981 F3000.0
G1 X46.498 Y59.141 F3000.0
G1 X46.340 Y59.301 F3000.0
G1 X46.181 Y59.461 F3000.0
G1 X46.022 Y59.620 F3000.0
G1 X45.862 Y59.779 F3000.0
G1 X45.702 Y59.938 F3000.0
G1 X45.541 Y60.096 F3000.0
G1 X45.379 Y60.254 F3000.0
G1 X45.217 Y60.412 F3000.0
G1 X45.054 Y60.569 F3000.0
G1 X44.891 Y60.726 F3000.0
G1 X44.727 Y60.883 F3000.0
G1 X44.563 Y61.039 F3000.0
G1 X44.397 Y61.195 F3000.0
G1 X44.232 Y61.351 F3000.0
G1 X44.065 Y61.506 F3000.0
G1 X43.899 Y61.661 F3000.0
G1 X43.731 Y61.816 F3000.0
G1 X43.563 Y61.970 F3000.0
G1 X43.394 Y62.124 F3000.0
G1 X43.225 Y62.277 F3000.0
G1 X43.055 Y62.430 F3000.0
G1 X42.885 Y62.583 F3000.0
G1 X42.714 Y62.736 F3000.0
G1 X42.542 Y62.888 F3000.0
G1 X42.370 Y63.039 F3000.0
G1 X42.197 Y63.190 F3000.0
G1 X42.024 Y63.341 F3000.0
G1 X41.850 Y63.492 F3000.0
G1 X41.675 Y63.642 F3000.0
G1 X41.500 Y63.791 F3000.0
G1 X41.324 Y63.941 F3000.0
G1 X41.148 Y64.090 F3000.0
G1 X40.971 Y64.238 F3000.0
G1 X40.793 Y64.386 F3000.0
G1 X40.615 Y64.534 F3000.0
G1 X40.437 Y64.681 F3000.0
G1 X40.257 Y64.828 F3000.0
G1 X40.077 Y64.974 F3000.0
G1 X39.897 Y65.120 F3000.0
G1 X39.716 Y65.266 F3000.0
G1 X39.534 Y65.411 F3000.0
G1 X39.352 Y65.556 F3000.0
G1 X39.169 Y65.700 F3000.0
G1 X38.986 Y65.844 F3000.0
G1 X38.802 Y65.988 F3000.0
G1 X38.617 Y66.131 F3000.0
G1 X38.432 Y66.273 F3000.0
G1 X38.246 Y66.415 F3000.0
G1 X38.060 Y66.557 F3000.0
G1 X37.873 Y66.698 F3000.0
G1 X37.686 Y66.839 F3000.0
G1 X37.498 Y66.980 F3000.0
G1 X37.309 Y67.120 F3000.0
G1 X37.120 Y67.259 F3000.0
G1 X36.930 Y67.398 F3000.0
G1 X36.740 Y67.537 F3000.0
G1 X36.549 Y67.675 F3000.0
G1 X36.357 Y67.812 F3000.0
G1 X36.165 Y67.950 F3000.0
G1 X35.972 Y68.086 F3000.0
G1 X35.779 Y68.222 F3000.0
G1 X35.585 Y68.358 F3000.0
G1 X35.391 Y68.493 F3000.0
G1 X35.196 Y68.628 F3000.0
G1 X35.000 Y68.762 F3000.0
G1 X34.804 Y68.896 F3000.0
G1 X34.607 Y69.030 F3000.0
G1 X34.410 Y69.162 F3000.0
G1 X34.212 Y69.295 F3000.0
G1 X34.014 Y69.426 F3000.0
G1 X33.815 Y69.558 F3000.0
G1 X33.615 Y69.689 F3000.0
G1 X33.415 Y69.819 F3000.0
G1 X33.215 Y69.949 F3000.0
G1 X33.013 Y70.078 F3000.0
G1 X32.812 Y70.207 F3000.0
G1 X32.609 Y70.335 F3000.0
G1 X32.406 Y70.463 F3000.0
G1 X32.203 Y70.590 F3000.0
G1 X31.999 Y70.716 F3000.0
G1 X31.794 Y70.843 F3000.0
G1 X31.589 Y70.968 F3000.0
G1 X31.383 Y71.093 F3000.0
G1 X31.177 Y71.218 F3000.0
G1 X30.970 Y71.342 F3000.0
G1 X30.763 Y71.465 F3000.0
G1 X30.555 Y71.588 F3000.0
G1 X30.346 Y71.710 F3000.0
G1 X30.137 Y71.832 F3000.0
G1 X29.927 Y71.953 F3000.0
G1 X29.717 Y72.074 F3000.0
G1 X29.507 Y72.194 F3000.0
G1 X29.295 Y72.314 F3000.0
G1 X29.083 Y72.433 F3000.0
G1 X28.871 Y72.551 F3000.0
G1 X28.658 Y72.669 F3000.0
G1 X28.445 Y72.786 F3000.0
G1 X28.231 Y72.903 F3000.0
G1 X28.016 Y73.019 F3000.0
G1 X27.801 Y73.135 F3000.0
G1 X27.586 Y73.250 F3000.0
G1 X27.370 Y73.364 F3000.0
G1 X27.153 Y73.478 F3000.0
G1 X26.936 Y73.591 F3000.0
G1 X26.718 Y73.704 F3000.0
G1 X26.500 Y73.816 F3000.0
G1 X26.281 Y73.927 F3000.0
G1 X26.062 Y74.038 F3000.0
G1 X25.842 Y74.148 F3000.0
G1 X25.621 Y74.257 F3000.0
G1 X25.401 Y74.366 F3000.0
G1 X25.179 Y74.475 F3000.0
G1 X24.957 Y74.582 F3000.0
G1 X24.735 Y74.689 F3000.0
G1 X24.512 Y74.796 F3000.0
G1 X24.288 Y74.902 F3000.0
G1 X24.064 Y75.007 F3000.0
G1 X23.840 Y75.111 F3000.0
G1 X23.615 Y75.215 F3000.0
G1 X23.389 Y75.319 F3000.0
G1 X23.163 Y75.421 F3000.0
G1 X22.937 Y75.523 F3000.0
G1 X22.710 Y75.625 F3000.0
G1 X22.482 Y75.725 F3000.0
G1 X22.254 Y75.825 F3000.0
G1 X22.025 Y75.925 F3000.0
G1 X21.796 Y76.024 F3000.0
G1 X21.567 Y76.122 F3000.0
G1 X21.337 Y76.219 F3000.0
G1 X21.106 Y76.316 F3000.0
G1 X20.875 Y76.412 F3000.0
G1 X20.643 Y76.507 F3000.0
G1 X20.411 Y76.602 F3000.0
G1 X20.179 Y76.696 F3000.0
G1 X19.946 Y76.790 F3000.0
G1 X19.712 Y76.882 F3000.0
G1 X19.479 Y76.974 F3000.0
G1 X19.244 Y77.066 F3000.0
G1 X19.009 Y77.156 F3000.0
G1 X18.774 Y77.246 F3000.0
G1 X18.538 Y77.335 F3000.0
G1 X18.302 Y77.424 F3000.0
G1 X18.065 Y77.512 F3000.0
G1 X17.827 Y77.599 F3000.0
G1 X17.590 Y77.685 F3000.0
G1 X17.352 Y77.771 F3000.0
G1 X17.113 Y77.856 F3000.0
G1 X16.874 Y77.940 F3000.0
G1 X16.634 Y78.024 F3000.0
G1 X16.394 Y78.107 F3000.0
G1 X16.154 Y78.189 F3000.0
G1 X15.913 Y78.270 F3000.0
G1 X15.671 Y78.351 F3000.0
G1 X15.429 Y78.431 F3000.0
G1 X15.187 Y78.510 F3000.0
G1 X14.944 Y78.589 F3000.0
G1 X14.701 Y78.667 F3000.0
G1 X14.458 Y78.744 F3000.0
G1 X14.214 Y78.820 F3000.0
G1 X13.969 Y78.895 F3000.0
G1 X13.724 Y78.970 F3000.0
G1 X13.479 Y79.044 F3000.0
G1 X13.233 Y79.117 F3000.0
G1 X12.987 Y79.190 F3000.0
G1 X12.740 Y79.262 F3000.0
G1 X12.493 Y79.333 F3000.0
G1 X12.246 Y79.403 F3000.0
G1 X11.998 Y79.472 F3000.0
G1 X11.749 Y79.541 F3000.0
G1 X11.501 Y79.609 F3000.0
G1 X11.252 Y79.676 F3000.0
G1 X11.002 Y79.742 F3000.0
G1 X10.752 Y79.808 F3000.0
G1 X10.502 Y79.873 F3000.0
G1 X10.251 Y79.937 F3000.0
G1 X10.000 Y80.000 F3000.0
G1 X9.748 Y80.062 F3000.0
G1 X9.497 Y80.124 F3000.0
G1 X9.244 Y80.185 F3000.0
G1 X8.992 Y80.245 F3000.0
G1 X8.738 Y80.304 F3000.0
G1 X8.485 Y80.363 F3000.0
G1 X8.231 Y80.420 F3000.0
G1 X7.977 Y80.477 F3000.0
G1 X7.722 Y80.533 F3000.0
G1 X7.467 Y80.588 F3000.0
G1 X7.212 Y80.643 F3000.0
G1 X6.956 Y80.696 F3000.0
G1 X6.700 Y80.749 F3000.0
G1 X6.444 Y80.801 F3000.0
G1 X6.187 Y80.852 F3000.0
G1 X5.930 Y80.903 F3000.0
G1 X5.672 Y80.952 F3000.0
G1 X5.415 Y81.001 F3000.0
G1 X5.156 Y81.048 F3000.0
G1 X4.898 Y81.095 F3000.0
G1 X4.639 Y81.142 F3000.0
G1 X4.380 Y81.187 F3000.0
G1 X4.120 Y81.231 F3000.0
G1 X3.860 Y81.275 F3000.0
G1 X3.600 Y81.318 F3000.0
G1 X3.340 Y81.360 F3000.0
G1 X3.079 Y81.401 F3000.0
G1 X2.818 Y81.441 F3000.0
G1 X2.556 Y81.480 F3000.0
G1 X2.294 Y81.519 F3000.0
G1 X2.032 Y81.556 F3000.0
G1 X1.770 Y81.593 F3000.0
G1 X1.507 Y81.629 F3000.0
G1 X1.244 Y81.664 F3000.0
G1 X0.980 Y81.698 F3000.0
G1 X0.717 Y81.732 F3000.0
G1 X0.453 Y81.764 F3000.0
G1 X0.189 Y81.796 F3000.0
G1 X-0.076 Y81.826 F3000.0
G1 X-0.341 Y81.856 F3000.0
G1 X-0.606 Y81.885 F3000.0
G1 X-0.871 Y81.913 F3000.0
G1 X-1.137 Y81.940 F3000.0
G1 X-1.403 Y81.966 F3000.0
G1 X-1.669 Y81.992 F3000.0
G1 X-1.936 Y82.016 F3000.0
G1 X-2.202 Y82.040 F3000.0
G1 X-2.469 Y82.063 F3000.0
G1 X-2.737 Y82.084 F3000.0
G1 X-3.004 Y82.105 F3000.0
G1 X-3.272 Y82.125 F3000.0
G1 X-3.540 Y82.144 F3000.0
G1 X-3.808 Y82.162 F3000.0
G1 X-4.077 Y82.180 F3000.0
G1 X-4.346 Y82.196 F3000.0
G1 X-4.615 Y82.212 F3000.0
G1 X-4.884 Y82.226 F3000.0
G1 X-5.153 Y82.240 F3000.0
G1 X-5.423 Y82.252 F3000.0
G1 X-5.693 Y82.264 F3000.0
G1 X-5.963 Y82.275 F3000.0
G1 X-6.233 Y82.285 F3000.0
G1 X-6.504 Y82.294 F3000.0
G1 X-6.774 Y82.302 F3000.0
G1 X-7.045 Y82.309 F3000.0
G1 X-7.317 Y82.316 F3000.0
G1 X-7.588 Y82.321 F3000.0
G1 X-7.860 Y82.325 F3000.0
G1 X-8.131 Y82.329 F3000.0
G1 X-8.403 Y82.331 F3000.0
G1 X-8.675 Y82.333 F3000.0
G1 X-8.948 Y82.333 F3000.0
G1 X-9.220 Y82.333 F3000.0
G1 X-9.493 Y82.332 F3000.0
G1 X-9.766 Y82.329 F3000.0
G1 X-10.039 Y82.326 F3000.0
G1 X-10.312 Y82.322 F3000.0
G1 X-10.585 Y82.317 F3000.0
G1 X-10.858 Y82.311 F3000.0
G1 X-11.132 Y82.304 F3000.0
G1 X-11.406 Y82.296 F3000.0
